X: 333
M:C
L:1/8
K:D
e | f>dg>e f>dA>F | G<eF<d e>Ac>A | f>dg>e f>de>c | B>g f/2e/2d/2c/2 {/c}d3 e |
f<dg>e f>dA>F | G<eF<d e>Ac>A | D2 F>A d>AF>A | B>g f/2e/2d/2c/2 e/2d/2c/2B/2 A/2G/2F/2E/2 !segno!||
!fine! B>g f/2e/2d/2c/2 {/c}d3 |]


